X: 13
T:The Rock & the Wee Pickle Tow
M:6/8
L:1/8
K:A
|:AF|EFA ABc|cac B2 f|ecA c2 B|BAA A2 F|
EFA ABc|cac B2 f|ecA AcB|BAA A:|
a|:~f3 fea|fea fec|
1ecf ecf|ecA Bce|aff fef|aec B2 A|AcB BcB|BAA A2:|
2efe ece|fac cBA|dcd ede|fac B2 a|AcB BcB|BAA A2||

